X: 100405
T: THE NAVAL BRIGADE HORNPIPE
C: Composed by W.B. Laybourn, 1885
R: hornpipe
B: K\"ohler's Violin Repository, v.3, 1885 p.263 #1
F: http://www.archive.org/details/klersviolinrepos03rugg
Z: 2012 John Chambers <jc:trillian.mit.edu>
N: The 2nd B in bar 11 may be a typo, and should be A as in bars 3, 7 and 15.
M: C|
L: 1/8
K: D
vAuG |\
(F/E/D) (CD) B,DA,D | (FA)Bc d2ed | (c/B/A) (eA) (fA)(gA) | a2b>^g a2A>G |
(F/E/D) (CD) B,DA,D | (FA)Bc d2ed | (c/B/A) (eA) (fA)(gA) | a2b>^c d2 :||: vfug |
(a/g/f) (aA) (g/f/e) (gA) | (fd)Ad f2ed | (c/B/B) (eA) (fA)(gA) | (^gA)(aA) (bA)(aA) |
(a/g/f) (aA) (g/f/e) (gA) | (fd)Ad f2ed | (c/B/A) (eA) (fA)(gA) | a2b>c d2 :|

%%sep 2 1 500

